assets/ic_go.svg

<svg width="40" height="40" fill="none" xmlns="http://www.w3.org/2000/svg"><rect rx="20" width="40" height="40"/><rect x="1" y="1" rx="19" width="38" height="38" stroke="#FF3E79" stroke-width="2"/><path d="m21.5 20-3.8-3.8a.996.996 0 0 1 0-1.41l.09-.09a.996.996 0 0 1 1.41 0l4.59 4.59c.39.39.39 1.02 0 1.41l-4.59 4.59a.996.996 0 0 1-1.41 0l-.09-.09a.996.996 0 0 1 0-1.41L21.5 20Z" fill="#FF3E79" fill-rule="evenodd"/></svg>

<svg width="40.000000" height="40.000000" viewBox="0 0 40 40" fill="none" xmlns="http://www.w3.org/2000/svg" xmlns:xlink="http://www.w3.org/1999/xlink">
	<desc>
			Created with Pixso.
	</desc>
	<defs/>
	<rect id="back" rx="20.000000" width="40.000000" height="40.000000" fill="#D8D8D8" fill-opacity="0"/>
	<rect id="back" x="1.000000" y="1.000000" rx="19.000000" width="38.000000" height="38.000000" stroke="#FF3E79" stroke-opacity="1.000000" stroke-width="2.000000"/>
	<path id="dropdown" d="M21.5 20L17.7 16.2C17.31 15.81 17.31 15.18 17.7 14.79L17.79 14.7C18.18 14.31 18.81 14.31 19.2 14.7L23.79 19.29C24.18 19.68 24.18 20.31 23.79 20.7L19.2 25.29C18.81 25.68 18.18 25.68 17.79 25.29L17.7 25.2C17.31 24.81 17.31 24.18 17.7 23.79L21.5 20Z" fill="#FF3E79" fill-opacity="1.000000" fill-rule="evenodd"/>
</svg>
